js30#1.3-custom-video/assets/svg/pause.svg

<svg width="36" height="36" viewBox="0 0 36 36" fill="none" xmlns="http://www.w3.org/2000/svg">
<path d="M15.047 34.594V1.4C15.047 0.781997 14.549 0.283997 13.921 0.283997H7.31399C6.68599 0.283997 6.18799 0.781997 6.18799 1.4V34.594C6.18799 35.212 6.68599 35.72 7.31399 35.72H13.921C14.549 35.72 15.047 35.222 15.047 34.594V34.594Z" fill="white"/>
<path d="M28.687 0.281006H22.08C21.462 0.281006 20.954 0.779006 20.954 1.39701V34.591C20.954 35.209 21.452 35.717 22.08 35.717H28.687C29.305 35.717 29.813 35.219 29.813 34.591V1.39701C29.813 0.779006 29.315 0.281006 28.687 0.281006V0.281006Z" fill="white"/>
</svg>

<!-- Generated by IcoMoon.io -->
<svg version="1.1" xmlns="http://www.w3.org/2000/svg" width="36" height="36" viewBox="0 0 36 36">
<title>pause</title>
<path fill="#b3b3b3" d="M15.047 34.594v-33.194c0-0.618-0.498-1.116-1.126-1.116h-6.607c-0.628 0-1.126 0.498-1.126 1.116v33.194c0 0.618 0.498 1.126 1.126 1.126h6.607c0.628 0 1.126-0.498 1.126-1.126z"></path>
<path fill="#b3b3b3" d="M28.687 0.281h-6.607c-0.618 0-1.126 0.498-1.126 1.116v33.194c0 0.618 0.498 1.126 1.126 1.126h6.607c0.618 0 1.126-0.498 1.126-1.126v-33.194c0-0.618-0.498-1.116-1.126-1.116z"></path>
</svg>
